X: 4
T: Popcorn Behaviour
R: reel
M: 4/4
L: 1/8
K: Bmin
ga|:b2 fg fdBd|cBcd cAFA|BFBd BF (3Bcd|cB cd c2 ga|
b2 fg fdBd|cBcd cAFA|EGBd edBG|1FDEC B,2 ga:|2FDEC B,CDE||
|:FB,B,F GB,B,G|FB,B,F EB,B,E|B,CDE FEFB|AFDE FGFE|
FB,B,F GB,B,G |^GB,B,^G =GB,B,G|EGBd edBG|1FDEC B,CDE:|2FDEC B,2 ga||


Tune 1735	Setting 15164

